X: 146
T:March By Marginghi. JaW.146
T:Marginghi's March. JaW.146
M:C
L:1/8
Q:180
S:James Winder Ms, Lancashire, 1835-41
R:March
O:England
A:Wyresdale,Lancashire
H:1/8
Z:vmp.Chris Partington, Aug 2004
K:C
G2|c2c>de2c2|g2g>ef2d2|e2f>dc2B2|c4z2G2|!
c2c>de2c2|g2g>ef2d2|e2f>dc2B2|c2c>cc2zd|!
d2d>Bg2g>d|b2b>ag2e2|d2d>BA2d2|G2G>GG2{A}G>F|!
ABcAd3c|Bcdef2e2|e2d>dd2G2|g2-g>ef2-f>d|!
e2-e>cd2g2|c'3g .f.e.d.c.|g2g>gH"H"g3G|c2c>d e2c2|!
g2-g>ef2d2|e2f>dc2B2|c2z2z2a2|g4z2a2|!
g4z2a2|g2g>fe2d2|c4z2a2|g4z2a2|!
g4z2a2|g2g>fe2d2|c2c>cc2|]
